images/advantages-img.svg

<svg width="50" height="28" viewBox="0 0 50 28" fill="none" xmlns="http://www.w3.org/2000/svg">
<path d="M39.7764 2L39.7764 9.33867L8.30019 9.33867L8.30019 2L39.7764 2Z" fill="#74C6FF"/>
<path d="M38.5415 0H9.3741C7.65111 0 6.24902 1.40209 6.24902 3.12508V5.20843C6.24902 12.6419 10.3554 19.3838 16.9638 22.8026C17.4743 23.0651 18.1034 22.8672 18.3681 22.3547C18.6306 21.8442 18.4326 21.2151 17.9201 20.9504C12.0075 17.892 8.33238 11.8606 8.33238 5.20833V3.12498C8.33238 2.54996 8.79909 2.08325 9.3741 2.08325H38.5415C39.1165 2.08325 39.5832 2.54996 39.5832 3.12498V5.20833C39.5832 11.8605 35.9082 17.8919 29.9935 20.9483C29.4809 21.2128 29.283 21.842 29.5455 22.3525C29.731 22.7108 30.0955 22.9171 30.4726 22.9171C30.6351 22.9171 30.7976 22.8796 30.9496 22.8004C37.5602 19.3836 41.6666 12.6439 41.6666 5.20823V3.12488C41.6666 1.40208 40.2644 0 38.5415 0Z" fill="#00A9DD"/>
<path d="M47.8396 21.4756C47.6771 21.086 47.2979 20.8318 46.8771 20.8318H1.04263C0.621816 20.8318 0.242607 21.086 0.0801033 21.4756C-0.0824007 21.8651 0.00715227 22.3131 0.305109 22.611L2.64062 24.9486C4.01985 26.3257 5.849 27.0841 7.79699 27.0841H40.1186C42.0666 27.0841 43.8979 26.3258 45.2792 24.9486L47.6147 22.611C47.9125 22.3131 48.0021 21.8651 47.8396 21.4756ZM43.8041 23.4756C42.8208 24.4589 41.5103 25.0006 40.1207 25.0006H7.79699C6.40741 25.0006 5.09693 24.4589 4.1136 23.4756L3.55529 22.9173H44.3625L43.8041 23.4756Z" fill="#00A9DD"/>
<path d="M47.9855 4.91889C45.1792 3.11464 40.6958 5.07309 40.1936 5.30014C39.6707 5.5397 39.9541 6.15017 40.1936 6.67518C40.4332 7.20019 40.5312 7.4377 41.0582 7.19814C42.0624 6.74188 45.2833 5.6606 46.8584 6.67518C47.5688 7.13144 47.9167 8.01691 47.9167 9.37525C47.9167 13.5461 39.504 16.0671 36.2559 16.6879L35.5184 16.8337C34.9539 16.9442 34.5872 17.492 34.6976 18.0567C34.7956 18.5525 35.2309 18.8963 35.7184 18.8963C35.7851 18.8963 35.8517 18.89 35.9205 18.8755L36.6518 18.7317C37.1976 18.6275 50 16.1171 50 9.37525C50.0001 7.27939 49.321 5.78141 47.9855 4.91889Z" fill="#00A9DD"/>
</svg>

<svg xmlns="http://www.w3.org/2000/svg" width="50" height="28" fill="none" xmlns:v="https://vecta.io/nano"><path d="M39.776 2v7.34H8.3V2h31.476z" fill="#74c6ff"/><g fill="#00a9dd"><path d="M38.542.0H9.374a3.13 3.13.0 0 0-3.125 3.125v2.083c0 7.433 4.106 14.175 10.715 17.594.51.262 1.14.065 1.404-.448s.065-1.14-.448-1.404c-5.913-3.058-9.588-9.1-9.588-15.742V3.125a1.04 1.04.0 0 1 1.042-1.042h29.167a1.04 1.04.0 0 1 1.042 1.042v2.083c0 6.652-3.675 12.684-9.6 15.74-.513.265-.7.894-.448 1.404.186.358.55.565.927.565.163.0.325-.038.477-.117 6.61-3.417 10.717-10.156 10.717-17.592V3.125A3.13 3.13.0 0 0 38.542.0z"/><path d="M47.84 21.476c-.162-.4-.542-.644-.962-.644H1.043c-.42.0-.8.254-.963.644a1.04 1.04.0 0 0 .225 1.135l2.335 2.34a7.25 7.25.0 0 0 5.156 2.136H40.12a7.26 7.26.0 0 0 5.161-2.136l2.335-2.338a1.04 1.04.0 0 0 .225-1.135zm-4.035 2a5.18 5.18.0 0 1-3.683 1.525H7.797a5.18 5.18.0 0 1-3.683-1.525l-.558-.558h40.807l-.558.558zm4.18-18.556c-2.806-1.804-7.3.154-7.792.38-.523.24-.24.85.0 1.375s.338.763.865.523c1.004-.456 4.225-1.538 5.8-.523.7.456 1.058 1.342 1.058 2.7.0 4.17-8.413 6.692-11.66 7.313l-.737.146a1.04 1.04.0 0 0 .2 2.063.97.97.0 0 0 .202-.021l.73-.144C37.198 18.628 50 16.117 50 9.375c0-2.096-.68-3.594-2.014-4.456z"/></g></svg>
